X: 441
T: Buffalo Gals
B: jims roots
M:C|
L:1/8
Q: 1/4=100
K:G
V:1 
(3DEF | "G"GFGA BABd | ed2B dDGB | "D"ddcB ADFA | "G"ed2Bd2 (3DEF |
GFGA BABd | ed2B dDGB | "D"dFAd cBAF | "G"G2 [G2B]-[G2B] :|
|:ef | gfga gdBd | [eg][d2g][Bg] [d2g]ed | "D"cAFA DFAc | "G"ed^ce d2 ef |
V:dg 
[df][df] edBd | [eg][d2g][Bg] [d2g]Bc | "D"dd^cd =cBAF | "G"G2[G2B]-[G2B] :|
% abcbook-tune_id 6298c2452eaaba574bfeddaa


% abcbook-boost 0
% abcbook-tablature 
% abcbook-transpose 
% abcbook-lastupdated 1654178373542
% abcbook-soundfonts 
% abcbook-repeats 1


